Sources/FrostedUI/Resources/Icons.xcassets/dollarSignSlashed12.imageset/dollar-sign-slashed-12.svg

<svg width="12" height="13" viewBox="0 0 12 13" fill="none" xmlns="http://www.w3.org/2000/svg" data-fui-icon="true">
  <path
    d="M6.00696 0C6.42105 0.000146254 6.75696 0.335877 6.75696 0.75V0.958008C8.71261 1.22112 9.55536 2.49696 9.73157 3.32031C9.8179 3.72501 9.55994 4.12404 9.1554 4.21094C8.75049 4.29756 8.35162 4.03859 8.26477 3.63379C8.22007 3.42592 7.9053 2.70433 6.75696 2.47852V5.40039C7.32112 5.51466 7.92287 5.67083 8.42297 5.94434C8.78549 6.14273 9.12845 6.41898 9.3761 6.8125C9.62571 7.20947 9.74817 7.67723 9.74817 8.20508C9.74771 9.49881 8.65761 10.807 6.75696 11.082V11.2959C6.75659 11.7097 6.42082 12.0458 6.00696 12.0459C5.59297 12.0459 5.25733 11.7098 5.25696 11.2959V11.084C4.40905 10.9647 3.76473 10.6471 3.28821 10.2393C2.69353 9.7301 2.41208 9.12819 2.28723 8.74805C2.15828 8.35471 2.37255 7.93108 2.76575 7.80176C3.1592 7.67277 3.58384 7.88685 3.71301 8.28027C3.78007 8.48433 3.93636 8.81923 4.26379 9.09961C4.47844 9.28325 4.79279 9.46286 5.25696 9.56055V6.64355C4.69282 6.5293 4.09113 6.37496 3.59094 6.10156C3.22839 5.90323 2.88555 5.62685 2.63782 5.2334C2.38797 4.83637 2.2658 4.36882 2.26575 3.84082C2.26585 2.54656 3.35659 1.23711 5.25696 0.961914V0.75C5.25696 0.335786 5.59274 0 6.00696 0ZM6.75696 9.56152C7.89306 9.32566 8.24765 8.57146 8.24817 8.20508C8.24817 7.91557 8.18364 7.73407 8.10657 7.61133C8.02722 7.48524 7.90113 7.36907 7.70325 7.26074C7.44969 7.12203 7.13286 7.02523 6.75696 6.93848V9.56152ZM5.25696 2.4834C4.11996 2.71958 3.76586 3.47524 3.76575 3.84082C3.7658 4.13062 3.83013 4.31187 3.90735 4.43457C3.98678 4.56057 4.11276 4.67689 4.31067 4.78516C4.5643 4.92377 4.88097 5.01969 5.25696 5.10645V2.4834Z"
    fill="currentColor"
  />
</svg>

<svg xmlns="http://www.w3.org/2000/svg" width="12" height="13" fill="none" data-fui-icon="true" viewBox="0 0 12 13"><path fill="currentColor" d="M6.007 0a.75.75 0 0 1 .75.75v.208c1.956.263 2.798 1.539 2.975 2.362a.751.751 0 0 1-1.467.314c-.045-.208-.36-.93-1.508-1.155V5.4c.564.115 1.166.27 1.666.544.362.199.705.475.953.869.25.396.372.864.372 1.392 0 1.294-1.09 2.602-2.991 2.877v.214a.75.75 0 0 1-1.5 0v-.212c-.848-.12-1.492-.437-1.969-.845a3.36 3.36 0 0 1-1-1.491.75.75 0 0 1 1.425-.468c.067.204.223.54.55.82.215.183.53.363.994.46V6.645c-.564-.115-1.166-.269-1.666-.542a2.54 2.54 0 0 1-.953-.869c-.25-.397-.372-.864-.372-1.392 0-1.294 1.09-2.604 2.991-2.88V.75a.75.75 0 0 1 .75-.75m.75 9.562c1.136-.236 1.49-.99 1.491-1.357 0-.29-.064-.47-.141-.594a1.05 1.05 0 0 0-.404-.35c-.253-.139-.57-.236-.946-.323zm-1.5-7.079c-1.137.237-1.491.992-1.491 1.358 0 .29.064.47.141.594.08.126.206.242.404.35.253.139.57.235.946.321z"/></svg>
